build/img/call-modal-img.svg

<svg width="238" height="360" viewBox="0 0 238 360" fill="none" xmlns="http://www.w3.org/2000/svg">
<path d="M35 180.5C35 180.5 72.5367 200 125 200C177.463 200 221 180.5 221 180.5" stroke="#A19B9B" stroke-width="5" stroke-linecap="round" stroke-linejoin="round"/>
<path d="M48.5 208C48.5 208 79.7454 224 125 224C170.255 224 203.5 208 203.5 208" stroke="#A19B9B" stroke-width="4" stroke-linecap="round" stroke-linejoin="round"/>
<path d="M82.5 233C82.5 233 91.7599 243 125 243C158.24 243 166.5 236.5 166.5 236.5" stroke="#A19B9B" stroke-width="3" stroke-linecap="round" stroke-linejoin="round"/>
<path d="M98.4193 342.653L106.713 326.264C108.368 323.01 112.46 321.756 115.834 323.474L124.08 327.67C124.402 327.325 124.734 326.966 125.083 326.586C128.295 323.126 132.689 318.386 136.488 310.873C140.3 303.343 141.521 296.979 142.417 292.332C142.511 291.84 142.6 291.366 142.693 290.913L137.16 288.103L134.438 286.715C131.059 284.995 129.658 280.942 131.305 277.683L139.598 261.293C141.247 258.037 145.34 256.782 148.72 258.503L153.339 260.871L153.275 260.996C154.927 262.106 156.463 263.507 157.793 265.124C159.037 266.67 160.003 268.218 160.744 269.843C166.792 282.84 164.662 297.22 153.402 319.467C137.837 350.217 118.616 354.556 117.784 354.733C115.963 355.096 114.147 355.224 112.223 355.118C110.155 354.999 108.123 354.584 106.256 353.904L106.203 353.996L101.553 351.691C98.1793 349.969 96.7745 345.916 98.4193 342.653Z" fill="#A19B9B"/>
<path d="M40 36L37 43" stroke="#A19B9B" stroke-linecap="round" stroke-linejoin="round"/>
<path d="M43 41L40 48" stroke="#A19B9B" stroke-linecap="round" stroke-linejoin="round"/>
<path d="M46 44L43 52" stroke="#A19B9B" stroke-linecap="round" stroke-linejoin="round"/>
<path d="M48.5 48L45 57" stroke="#A19B9B" stroke-linecap="round" stroke-linejoin="round"/>
<path d="M51 51.5L46 63" stroke="#A19B9B" stroke-linecap="round" stroke-linejoin="round"/>
<path d="M53.5 56.5L47 71" stroke="#A19B9B" stroke-linecap="round" stroke-linejoin="round"/>
<path d="M56 61L49 77" stroke="#A19B9B" stroke-linecap="round" stroke-linejoin="round"/>
<path d="M64.5 107.5L53 131.5" stroke="#A19B9B" stroke-linecap="round" stroke-linejoin="round"/>
<path d="M58 66L50 83" stroke="#A19B9B" stroke-linecap="round" stroke-linejoin="round"/>
<path d="M60 71.5L52 90" stroke="#A19B9B" stroke-linecap="round" stroke-linejoin="round"/>
<path d="M62.5 78L53 99" stroke="#A19B9B" stroke-linecap="round" stroke-linejoin="round"/>
<path d="M63.5 86L52.5 110" stroke="#A19B9B" stroke-linecap="round" stroke-linejoin="round"/>
<path d="M65 94.5L52 123" stroke="#A19B9B" stroke-linecap="round" stroke-linejoin="round"/>
<path d="M26 158C37 155 51 144 51 144" stroke="#A19B9B" stroke-width="2" stroke-linecap="round" stroke-linejoin="round"/>
<path d="M49.5 145C49.5 145 43 158.5 32 160" stroke="#A19B9B" stroke-width="2" stroke-linecap="round" stroke-linejoin="round"/>
<path d="M50.5 143C50.5 143 48.5 157 42 162.5" stroke="#A19B9B" stroke-width="2" stroke-linecap="round" stroke-linejoin="round"/>
<path d="M50 146.5C50 146.5 53 155.5 50 160.5" stroke="#A19B9B" stroke-width="2" stroke-linecap="round" stroke-linejoin="round"/>
<path d="M189 147C200 144 214 133 214 133" stroke="#A19B9B" stroke-width="2" stroke-linecap="round" stroke-linejoin="round"/>
<path d="M212.5 134C212.5 134 206 147.5 195 149" stroke="#A19B9B" stroke-width="2" stroke-linecap="round" stroke-linejoin="round"/>
<path d="M213.5 132C213.5 132 211.5 146 205 151.5" stroke="#A19B9B" stroke-width="2" stroke-linecap="round" stroke-linejoin="round"/>
<path d="M213 135.5C213 135.5 216 144.5 213 149.5" stroke="#A19B9B" stroke-width="2" stroke-linecap="round" stroke-linejoin="round"/>
<path d="M236.497 6.77868C225.465 9.65729 211.344 20.5024 211.344 20.5024" stroke="#A19B9B" stroke-width="2" stroke-linecap="round" stroke-linejoin="round"/>
<path d="M212.855 19.5191C212.855 19.5191 219.504 6.09152 230.52 4.71283" stroke="#A19B9B" stroke-width="2" stroke-linecap="round" stroke-linejoin="round"/>
<path d="M211.833 21.5079C211.833 21.5079 213.987 7.53079 220.548 2.10275" stroke="#A19B9B" stroke-width="2" stroke-linecap="round" stroke-linejoin="round"/>
<path d="M212.372 18.0137C212.372 18.0137 209.471 8.98116 212.526 4.01452" stroke="#A19B9B" stroke-width="2" stroke-linecap="round" stroke-linejoin="round"/>
<path d="M1.04959 8.77868C12.082 11.6573 26.2023 22.5024 26.2023 22.5024" stroke="#A19B9B" stroke-width="2" stroke-linecap="round" stroke-linejoin="round"/>
<path d="M24.6913 21.5191C24.6913 21.5191 18.043 8.09152 7.02709 6.71283" stroke="#A19B9B" stroke-width="2" stroke-linecap="round" stroke-linejoin="round"/>
<path d="M25.7134 23.5079C25.7134 23.5079 23.5592 9.53079 16.999 4.10275" stroke="#A19B9B" stroke-width="2" stroke-linecap="round" stroke-linejoin="round"/>
<path d="M25.1748 20.0137C25.1748 20.0137 28.0754 10.9812 25.0205 6.01452" stroke="#A19B9B" stroke-width="2" stroke-linecap="round" stroke-linejoin="round"/>
<path d="M50.5349 91.0051C47.5067 66.4635 40.1085 39.689 24.9792 21.9444C30.2344 22.881 36.3353 24.0901 43.0725 25.4255C62.8932 29.3539 88.2213 34.374 113.727 36.7538C132.588 38.5138 151.736 38.8598 169.133 36.2736C185.532 33.8358 200.504 28.7734 212.208 19.7125C217.719 32.9817 223.979 55.7801 225.882 77.9213C226.893 89.6836 226.664 101.149 224.501 110.846C222.398 120.273 218.518 127.816 212.396 132.461C191.025 131.219 154.983 129.765 121.62 131.315C104.755 132.098 88.5084 133.652 75.1626 136.409C68.4892 137.787 62.4919 139.476 57.4832 141.545C54.8649 142.626 52.4814 143.826 50.399 145.162C51.2383 140.597 51.8503 134.627 52.1265 127.784C52.5526 117.227 52.1863 104.389 50.5349 91.0051Z" stroke="#A19B9B" stroke-width="4"/>
<path d="M107 104C122.333 111.167 158.6 119.4 181 95" stroke="#A19B9B" stroke-width="2" stroke-linecap="round"/>
<path d="M128.781 66.7916C129.021 67.7454 129.08 68.3991 129.039 68.8361C129 69.2513 128.88 69.4025 128.801 69.4723C128.699 69.561 128.492 69.6652 128.056 69.7077C127.622 69.7501 127.065 69.7217 126.365 69.6385C125.782 69.5692 125.146 69.4681 124.444 69.3566C124.307 69.3348 124.167 69.3126 124.025 69.2902C123.165 69.1546 122.228 69.0134 121.249 68.9152C119.295 68.7192 117.126 68.689 114.959 69.2333C112.793 69.7776 110.896 70.8294 109.266 71.9261C108.45 72.4753 107.691 73.0426 106.997 73.5684C106.883 73.6554 106.77 73.741 106.66 73.825C106.094 74.2551 105.581 74.6449 105.1 74.9814C104.522 75.3856 104.044 75.6741 103.642 75.842C103.238 76.0105 103.006 76.0165 102.875 75.9863C102.772 75.9625 102.594 75.886 102.364 75.5384C102.121 75.1726 101.865 74.5685 101.625 73.6147C99.7409 66.1158 104.293 58.5093 111.792 56.6252C119.29 54.7411 126.897 59.2927 128.781 66.7916Z" stroke="#A19B9B" stroke-width="2"/>
<path d="M182.166 70.3043C181.977 71.2693 181.752 71.886 181.529 72.264C181.317 72.6232 181.144 72.7088 181.042 72.7381C180.913 72.7751 180.681 72.7813 180.269 72.6341C179.858 72.4875 179.366 72.2244 178.768 71.851C178.27 71.5401 177.737 71.1777 177.15 70.7778C177.035 70.6997 176.918 70.6201 176.799 70.5393C176.079 70.0504 175.291 69.5236 174.447 69.0179C172.762 68.008 170.813 67.057 168.621 66.6268C166.429 66.1966 164.265 66.3402 162.323 66.6383C161.351 66.7876 160.422 66.9776 159.571 67.158C159.43 67.1878 159.292 67.2173 159.156 67.2462C158.46 67.3944 157.831 67.5286 157.252 67.6283C156.557 67.748 156.002 67.8055 155.567 67.786C155.129 67.7663 154.917 67.673 154.811 67.5898C154.728 67.5242 154.6 67.3795 154.539 66.967C154.476 66.5327 154.501 65.8768 154.69 64.9118C156.179 57.3245 163.537 52.381 171.124 53.8701C178.712 55.3592 183.655 62.7171 182.166 70.3043Z" stroke="#A19B9B" stroke-width="2"/>
<circle cx="111.5" cy="62.5" r="2.5" fill="#A19B9B"/>
<circle cx="164.5" cy="60.5" r="2.5" fill="#A19B9B"/>
<path d="M27 23.5C49.8333 42.3333 86.3 93 49.5 145" stroke="#A19B9B" stroke-width="2"/>
</svg>

<svg width="238" height="360" fill="none" xmlns="http://www.w3.org/2000/svg"><path d="M35 180.5S72.537 200 125 200s96-19.5 96-19.5" stroke="#A19B9B" stroke-width="5" stroke-linecap="round" stroke-linejoin="round"/><path d="M48.5 208s31.245 16 76.5 16c45.255 0 78.5-16 78.5-16" stroke="#A19B9B" stroke-width="4" stroke-linecap="round" stroke-linejoin="round"/><path d="M82.5 233s9.26 10 42.5 10 41.5-6.5 41.5-6.5" stroke="#A19B9B" stroke-width="3" stroke-linecap="round" stroke-linejoin="round"/><path d="M98.42 342.653l8.293-16.389c1.655-3.254 5.747-4.508 9.121-2.79l8.246 4.196c.322-.345.654-.704 1.003-1.084 3.212-3.46 7.606-8.2 11.405-15.713 3.812-7.53 5.033-13.894 5.929-18.541.094-.492.183-.966.276-1.419l-5.533-2.81-2.722-1.388c-3.379-1.72-4.78-5.773-3.133-9.032l8.293-16.39c1.649-3.256 5.742-4.511 9.122-2.79l4.619 2.368-.064.125a21.214 21.214 0 0 1 4.518 4.128c1.244 1.546 2.21 3.094 2.951 4.719 6.048 12.997 3.918 27.377-7.342 49.624-15.565 30.75-34.786 35.089-35.618 35.266a21.893 21.893 0 0 1-5.561.385 21.064 21.064 0 0 1-5.967-1.214l-.053.092-4.65-2.305c-3.374-1.722-4.778-5.775-3.134-9.038z" fill="#A19B9B"/><path d="M40 36l-3 7m6-2l-3 7m6-4l-3 8m5.5-4L45 57m6-5.5L46 63m7.5-6.5L47 71m9-10l-7 16m15.5 30.5l-11.5 24M58 66l-8 17m10-11.5L52 90m10.5-12L53 99m10.5-13l-11 24M65 94.5L52 123" stroke="#A19B9B" stroke-linecap="round" stroke-linejoin="round"/><path d="M26 158c11-3 25-14 25-14m-1.5 1S43 158.5 32 160m18.5-17s-2 14-8.5 19.5m8-16s3 9 0 14M189 147c11-3 25-14 25-14m-1.5 1s-6.5 13.5-17.5 15m18.5-17s-2 14-8.5 19.5m8-16s3 9 0 14M236.497 6.779c-11.032 2.878-25.153 13.723-25.153 13.723m1.511-.982s6.649-13.428 17.665-14.807m-18.687 16.795s2.154-13.977 8.715-19.405m-8.176 15.911s-2.901-9.033.154-14M1.05 8.779c11.032 2.878 25.152 13.723 25.152 13.723m-1.511-.982S18.043 8.091 7.027 6.712m18.686 16.796S23.56 9.53 17 4.103m8.175 15.911s2.9-9.033-.155-14" stroke="#A19B9B" stroke-width="2" stroke-linecap="round" stroke-linejoin="round"/><path d="M50.535 91.005c-3.028-24.541-10.426-51.316-25.556-69.06 5.255.936 11.356 2.145 18.093 3.48 19.821 3.929 45.15 8.949 70.655 11.329 18.861 1.76 38.009 2.106 55.406-.48 16.399-2.438 31.371-7.5 43.075-16.562 5.511 13.27 11.771 36.068 13.674 58.21 1.011 11.762.782 23.227-1.381 32.924-2.103 9.427-5.983 16.97-12.105 21.615-21.371-1.242-57.413-2.696-90.776-1.146-16.865.783-33.112 2.337-46.457 5.094-6.674 1.378-12.671 3.067-17.68 5.136-2.618 1.081-5.002 2.281-7.084 3.617.84-4.565 1.451-10.535 1.727-17.378.427-10.557.06-23.395-1.591-36.779z" stroke="#A19B9B" stroke-width="4"/><path d="M107 104c15.333 7.167 51.6 15.4 74-9" stroke="#A19B9B" stroke-width="2" stroke-linecap="round"/><path d="M128.781 66.792c.24.953.299 1.607.258 2.044-.039.415-.159.567-.238.636-.102.089-.309.193-.745.236-.434.042-.991.014-1.691-.07-.583-.069-1.219-.17-1.921-.281l-.419-.067a49.321 49.321 0 0 0-2.776-.375c-1.954-.196-4.123-.226-6.29.318-2.166.545-4.063 1.596-5.693 2.693a49.705 49.705 0 0 0-2.269 1.642l-.337.257c-.566.43-1.079.82-1.56 1.156-.578.405-1.056.693-1.458.861-.404.168-.636.174-.767.144-.103-.023-.281-.1-.511-.448-.243-.365-.499-.97-.739-1.923-1.884-7.5 2.668-15.106 10.167-16.99 7.498-1.884 15.105 2.668 16.989 10.167zm53.385 3.512c-.189.965-.414 1.582-.637 1.96-.212.36-.385.445-.487.474-.129.037-.361.043-.773-.104-.411-.147-.903-.41-1.501-.783a50.207 50.207 0 0 1-1.618-1.073l-.351-.239a49.09 49.09 0 0 0-2.352-1.521c-1.685-1.01-3.634-1.961-5.826-2.391-2.192-.43-4.356-.287-6.298.011-.972.15-1.901.34-2.752.52l-.415.088c-.696.148-1.325.283-1.904.382-.695.12-1.25.177-1.685.158-.438-.02-.65-.113-.756-.196-.083-.066-.211-.21-.272-.623-.063-.434-.038-1.09.151-2.055 1.489-7.588 8.847-12.531 16.434-11.042 7.588 1.49 12.531 8.847 11.042 16.434z" stroke="#A19B9B" stroke-width="2"/><circle cx="111.5" cy="62.5" r="2.5" fill="#A19B9B"/><circle cx="164.5" cy="60.5" r="2.5" fill="#A19B9B"/><path d="M27 23.5C49.833 42.333 86.3 93 49.5 145" stroke="#A19B9B" stroke-width="2"/></svg>
